X: 1103
T: Hüseynî Peşrev
C: Lavtacı Andon
O: Turkey
F: http://compmusic.upf.edu/node/140
N: huseyni--pesrev--muhammes----lavtaci_andon
N: makam= huseyni
N: form= pesrev
N: usul= muhammes = 32/4
M: 32/4
L: 1/16
K: C _2/4B ^3/4f  
Q: 1/4=84
%%MIDI tuningsystem comma53
A6 g2 e8  | f3 e f2 g2 e3 d c2 d2  | \
w:  1. HANE  |   | 
c3 B c B B A A3 d c2 d2  | 
w:   | 
e6 e d e4 e2 d2  | f6 g2 f e d2 e2 f2  | \
w:   |   | 
g8 g2 f4 g2  | f2 e4 d2 a2 g4 f2  | 
w:   |   | 
f2 e g f2 e2 e6 d2  | a6 ^f2 g2 a2 g2 ^3/4f2  | \
w:   |   | 
e6 g2 ^1/4f3 e d2 ^c2  | d4 e2 f2 e4 f2 g2  | 
w:   |   | 
^f2 =b2 a2 g2 ^3/4f2 e f e2 f2  | \
w:   | 
g2 a2 g2 f2 a4 g2 =f2  | e2 d2 c2 B2 A6 g2  | 
w:   |   | 
e6 c2 d6 B2  | c2 B d c2 B2 A8  | G2 A4 A2 A4 (3g2^f2g2  | \
w:   |   |  TESLİM  | 
e6 d c d4 (3ede d2  | 
w:   | 
d2 c4 B2 A2 G2 =f2 e d  | d6 c2 d2 e4 d c  | \
w:   |   | 
c6 B2 z2 d4 c B  | B6 A2 z2 c4 B A  | 
w:   |   | 
A4 (3d2c2d2 A8  | e2 =f2 e2 d2 c2 B2 A4  | \
w:   |   | 
G4 A4 A2 g2 f2 g2  | z2 e ^2/4f e2 f2 z2 d4 e2  | 
w:  2. HANE  |   | 
^2/4f4 g4 a g a =b a2 g2  | f3 e f2 g2 a6 =b2  | \
w:   |   | 
g6 a2 g2 f e f2 g2  | 
w:   | 
^1/4f3 e d2 e2 d4 c'2 b2  | a4 g2 f2 _1/4b2 g4 f2  | \
w:   |   | 
f2 e g f2 e2 e6 a2  | e6 d2 e3 d c2 d2  | 
w:   |   | 
d3 c B2 c2 B2 c2 d2 d c  | c6 d2 e6 f2  | \
w:   |   | 
g4 ^1/4f2 e2 d3 ^c =B2 c2  | d2 e2 f2 g2 a4 g2 ^2/4f2  | 
w:   |   | 
e2 d2 c2 B2 A6 g2  | e6 c2 d6 B2  | c2 B d c2 B2 A8  | \
w:   |   |   | 
G2 A4 A2 A4 (3g2^f2g2  | 
w:  TESLİM  | 
e6 d c d4 (3ede d2  | d2 c4 B2 A2 G2 =f2 e d  | \
w:   |   | 
d6 c2 d2 e4 d c  | 
w:   | 
c6 B2 z2 d4 c B  | B6 A2 z2 c4 B A  | \
w:   |   | 
A4 (3d2c2d2 A8  | ^f2 g2 a3 g f2 g2 a4  | 
w:   |   | 
g4 a4 a g a _1/4b a2 g2  | f e d2 f2 g2 a6 b2  | \
w:  3. HANE  |   | 
c'2 d'2 c'2 b2 a2 g2 d'2 c'2  | 
w:   | 
e'2 c'4 b2 a2 g2 a2 b2  | d'2 c'4 b2 b3 a g2 a2  | \
w:   |   | 
g4 c'2 b2 c'2 d'4 c' b  | 
w:   | 
a b c'4 b a a8  | a4 (3d'2c'2d'2 a4 z4  | \
w:   |   | 
_b8 b a b c' a2 g2  | ^f3 _3/4e d2 e2 f4 e2 d2  | 
w:   |   | 
a4 g2 ^f2 f2 _3/4e f e2 d2  | d6 =f2 e3 d c4  | \
w:   |   | 
d2 e2 f2 g2 a4 g2 =f2  | e2 d2 c2 B2 A6 g2  | 
w:   |   | 
e6 c2 d6 B2  | c2 B d c2 B2 A8  | G2 A4 A2 A4 (3g2^f2g2  | \
w:   |   |  TESLİM  | 
e6 d c d4 (3ede d2  | 
w:   | 
d2 c4 B2 A2 G2 =f2 e d  | d6 c2 d2 e4 d c  | \
w:   |   | 
c6 B2 z2 d4 c B  | B6 A2 z2 c4 B A  | 
w:   |   | 
A4 (3d2c2d2 A8  | e2 =f2 e2 d2 c2 B2 A4  | \
w:   |   | 
G4 A4 z2 d2 c2 B2  | A3 G ^F2 G2 A6 B2  | 
w:  4. HANE  |   | 
c6 _7/8d2 c2 d e d2 c2  | (3c2B2A2 B2 c2 B3 A G2 A2  | \
w:   |   | 
B6 A2 c6 B2  | _7/8d4 c2 B2 A3 G F2 G2  | 
w:   |   | 
A4 G2 F2 _7/8d2 c2 B2 A2  | A2 G A G2 F2 F6 ^c2  | \
w:   |   | 
d6 e2 d3 ^c =B2 c2  | d2 e2 ^c2 d2 e2 ^f2 d2 e2  | 
w:   |   | 
^f6 g2 ^3/4f2 g2 f2 e2  | d3 c c2 d2 c2 d2 c2 B2  | \
w:   |   | 
d2 e2 f2 g2 a4 g2 ^2/4f2  | 
w:   | 
e2 d2 c2 B2 A6 g2  | e6 c2 d6 B2  | c2 B d c2 B2 A8  | \
w:   |   |   | 
G2 A4 A2 A4 (3g2^f2g2  | 
w:  TESLİM  | 
e6 d c d4 (3ede d2  | d2 c4 B2 A2 G2 =f2 e d  | \
w:   |   | 
d6 c2 d2 e4 d c  | 
w:   | 
c6 B2 z2 d4 c B  | B6 A2 z2 c4 B A  | \
w:   |   | 
A4 (3d2c2d2 A8  | e2 =f2 e2 d2 c2 B2 A4  | 
w:   |  KARAR  | 
|


